; generated by Slic3r 0.7.1 on 2012-04-23 at 15:01:33

; layer_height = .35
; perimeters = 3
; solid_layers = 3
; fill_density = .42
; nozzle_diameter = .35
; filament_diameter = 1.75
; extrusion_multiplier = 1
; perimeter_speed = 30
; infill_speed = 30
; travel_speed = 150
; extrusion_width_ratio = 0
; scale = 1
; single wall width = 0.37mm

M190 S80 ; set bed temperature
M104 S160 ; set temperature

M109 S160 ; wait for temperature to be reached
G90 ; use absolute coordinates
G21 ; set units to millimeters
G92 E0 ; reset extrusion distance
M82 ; use absolute distances for extrusion
G1 Z0.350 F9000.000
G1 X-12.418 Y-11.328
G1 F1800.000 E2.00000
G1 X-11.328 Y-12.418 F1800.000 E2.08159
G1 X-10.688 Y-12.978 E2.12660
G1 X-9.448 Y-13.908 E2.20864
G1 X-8.728 Y-14.368 E2.25387
G1 X-7.378 Y-15.108 E2.33535
G1 X-6.558 Y-15.488 E2.38319
G1 X-5.108 Y-16.018 E2.46490
G1 X-4.338 Y-16.238 E2.50729
G1 X-2.838 Y-16.568 E2.58858
G1 X-1.978 Y-16.688 E2.63454
G1 X-0.438 Y-16.798 E2.71626
G1 X0.422 Y-16.798 E2.76178
G1 X1.962 Y-16.688 E2.84350
G1 X2.812 Y-16.568 E2.88894
G1 X4.322 Y-16.238 E2.97075
G1 X5.102 Y-16.018 E3.01364
G1 X6.552 Y-15.488 E3.09536
G1 X7.372 Y-15.108 E3.14319
G1 X8.722 Y-14.368 E3.22468
G1 X9.442 Y-13.908 E3.26990
G1 X10.682 Y-12.978 E3.35194
G1 X11.322 Y-12.418 E3.39695
G1 X12.412 Y-11.328 E3.47854
G1 X12.992 Y-10.668 E3.52505
G1 X13.912 Y-9.428 E3.60678
G1 X14.352 Y-8.728 E3.65054
G1 X15.092 Y-7.378 E3.73202
G1 X15.452 Y-6.588 E3.77797
G1 X15.992 Y-5.138 E3.85987
G1 X16.232 Y-4.338 E3.90408
G1 X16.562 Y-2.838 E3.98537
G1 X16.682 Y-1.978 E4.03133
G1 X16.792 Y-0.438 E4.11305
G1 X16.792 Y0.422 E4.15857
G1 X16.682 Y1.962 E4.24029
G1 X16.562 Y2.812 E4.28573
G1 X16.232 Y4.322 E4.36754
G1 X15.992 Y5.132 E4.41225
G1 X15.452 Y6.582 E4.49415
G1 X15.092 Y7.372 E4.54010
G1 X14.352 Y8.722 E4.62159
G1 X13.912 Y9.422 E4.66535
G1 X12.992 Y10.662 E4.74707
G1 X12.412 Y11.322 E4.79358
G1 X11.322 Y12.412 E4.87517
G1 X10.662 Y12.992 E4.92168
G1 X9.422 Y13.912 E5.00340
G1 X8.722 Y14.352 E5.04716
G1 X7.372 Y15.092 E5.12865
G1 X6.582 Y15.452 E5.17460
G1 X5.132 Y15.992 E5.25650
G1 X4.322 Y16.232 E5.30121
G1 X2.812 Y16.562 E5.38302
G1 X1.962 Y16.682 E5.42846
G1 X0.422 Y16.792 E5.51018
G1 X-0.438 Y16.792 E5.55570
G1 X-1.978 Y16.682 E5.63742
G1 X-2.838 Y16.562 E5.68338
G1 X-4.338 Y16.232 E5.76467
G1 X-5.138 Y15.992 E5.80888
G1 X-6.588 Y15.452 E5.89078
G1 X-7.378 Y15.092 E5.93673
G1 X-8.728 Y14.352 E6.01821
G1 X-9.428 Y13.912 E6.06197
G1 X-10.668 Y12.992 E6.14370
G1 X-11.328 Y12.412 E6.19020
G1 X-12.418 Y11.322 E6.27180
G1 X-12.978 Y10.682 E6.31681
G1 X-13.908 Y9.442 E6.39885
G1 X-14.368 Y8.722 E6.44407
G1 X-15.108 Y7.372 E6.52556
G1 X-15.488 Y6.552 E6.57339
G1 X-16.018 Y5.102 E6.65511
G1 X-16.238 Y4.322 E6.69800
G1 X-16.568 Y2.812 E6.77981
G1 X-16.688 Y1.962 E6.82525
G1 X-16.798 Y0.422 E6.90697
G1 X-16.798 Y-0.438 E6.95249
G1 X-16.688 Y-1.978 E7.03421
G1 X-16.568 Y-2.838 E7.08017
G1 X-16.238 Y-4.338 E7.16146
G1 X-16.018 Y-5.108 E7.20385
G1 X-15.488 Y-6.558 E7.28556
G1 X-15.108 Y-7.378 E7.33340
G1 X-14.368 Y-8.728 E7.41488
G1 X-13.908 Y-9.448 E7.46011
G1 X-12.978 Y-10.688 E7.54215
G1 X-12.454 Y-11.287 E7.58424
G1 F1800.000 E5.58424
G92 E0
G1 X3.816 Y-3.034 F9000.000
G1 F1800.000 E2.00000
G1 X6.884 Y-3.034 F1800.000 E2.16236
G1 X6.884 Y3.034 E2.48351
G1 X3.816 Y3.034 E2.64587
G1 X3.816 Y-2.979 E2.96411
G1 X3.456 Y-3.394 F9000.000
G1 X7.244 Y-3.394 F1800.000 E3.16464
G1 X7.244 Y3.394 E3.52397
G1 X3.456 Y3.394 E3.72451
G1 X3.456 Y-3.339 E4.08091
G1 X3.095 Y-3.755 F9000.000
G1 X7.605 Y-3.755 F1800.000 E4.31963
G1 X7.605 Y3.755 E4.71713
G1 X3.095 Y3.755 E4.95584
G1 X3.095 Y-3.700 E5.35043
G1 F1800.000 E3.35043
G92 E0
G1 X1.547 Y-1.547 F9000.000
G1 F1800.000 E2.00000
G1 X2.021 Y-0.837 F1800.000 E2.04517
G1 X2.187 Y0.000 E2.09035
G1 X2.021 Y0.837 E2.13552
G1 X1.547 Y1.547 E2.18069
G1 X0.837 Y2.021 E2.22587
G1 X0.000 Y2.187 E2.27104
G1 X-0.837 Y2.021 E2.31621
G1 X-1.547 Y1.547 E2.36139
G1 X-2.021 Y0.837 E2.40656
G1 X-2.187 Y0.000 E2.45173
G1 X-2.021 Y-0.837 E2.49691
G1 X-1.547 Y-1.547 E2.54208
G1 X-0.837 Y-2.021 E2.58725
G1 X0.000 Y-2.187 E2.63243
G1 X0.837 Y-2.021 E2.67760
G1 X1.501 Y-1.577 E2.71986
G1 X1.807 Y-1.807 F9000.000
G1 X2.361 Y-0.978 F1800.000 E2.77262
G1 X2.555 Y0.000 E2.82539
G1 X2.361 Y0.978 E2.87816
G1 X1.807 Y1.807 E2.93092
G1 X0.978 Y2.361 E2.98369
G1 X0.000 Y2.555 E3.03646
G1 X-0.978 Y2.361 E3.08922
G1 X-1.807 Y1.807 E3.14199
G1 X-2.361 Y0.978 E3.19476
G1 X-2.555 Y0.000 E3.24753
G1 X-2.361 Y-0.978 E3.30029
G1 X-1.807 Y-1.807 E3.35306
G1 X-0.978 Y-2.361 E3.40583
G1 X0.000 Y-2.555 E3.45859
G1 X0.978 Y-2.361 E3.51136
G1 X1.761 Y-1.837 E3.56121
G1 X2.067 Y-2.067 F9000.000
G1 X2.700 Y-1.118 F1800.000 E3.62157
G1 X2.923 Y0.000 E3.68193
G1 X2.700 Y1.118 E3.74229
G1 X2.067 Y2.067 E3.80265
G1 X1.118 Y2.700 E3.86301
G1 X0.000 Y2.923 E3.92337
G1 X-1.118 Y2.700 E3.98373
G1 X-2.067 Y2.067 E4.04409
G1 X-2.700 Y1.118 E4.10446
G1 X-2.923 Y0.000 E4.16482
G1 X-2.700 Y-1.118 E4.22518
G1 X-2.067 Y-2.067 E4.28554
G1 X-1.118 Y-2.700 E4.34590
G1 X0.000 Y-2.923 E4.40626
G1 X1.118 Y-2.700 E4.46662
G1 X2.021 Y-2.097 E4.52406
G1 F1800.000 E2.52406
G92 E0
G1 X6.609 Y-7.628 F9000.000
G1 F1800.000 E2.00000
G1 X7.628 Y-6.609 F1800.000 E2.07622
G1 X8.491 Y-5.456 E2.15244
G1 X9.181 Y-4.193 E2.22866
G1 X9.684 Y-2.843 E2.30487
G1 X9.990 Y-1.436 E2.38109
G1 X10.093 Y0.000 E2.45731
G1 X9.990 Y1.436 E2.53353
G1 X9.684 Y2.843 E2.60975
G1 X9.181 Y4.193 E2.68597
G1 X8.491 Y5.456 E2.76219
G1 X7.628 Y6.609 E2.83841
G1 X6.609 Y7.628 E2.91463
G1 X5.456 Y8.491 E2.99085
G1 X4.193 Y9.181 E3.06707
G1 X2.843 Y9.684 E3.14328
G1 X1.436 Y9.990 E3.21950
G1 X0.000 Y10.093 E3.29572
G1 X-1.436 Y9.990 E3.37194
G1 X-2.843 Y9.684 E3.44816
G1 X-4.193 Y9.181 E3.52438
G1 X-5.456 Y8.491 E3.60060
G1 X-6.609 Y7.628 E3.67682
G1 X-7.628 Y6.609 E3.75304
G1 X-8.491 Y5.456 E3.82926
G1 X-9.181 Y4.193 E3.90547
G1 X-9.684 Y2.843 E3.98169
G1 X-9.990 Y1.436 E4.05791
G1 X-10.093 Y0.000 E4.13413
G1 X-9.990 Y-1.436 E4.21035
G1 X-9.684 Y-2.843 E4.28657
G1 X-9.181 Y-4.193 E4.36279
G1 X-8.491 Y-5.456 E4.43901
G1 X-7.628 Y-6.609 E4.51523
G1 X-6.609 Y-7.628 E4.59144
G1 X-5.456 Y-8.491 E4.66767
G1 X-4.193 Y-9.181 E4.74388
G1 X-2.843 Y-9.684 E4.82010
G1 X-1.436 Y-9.990 E4.89632
G1 X0.000 Y-10.093 E4.97254
G1 X1.436 Y-9.990 E5.04876
G1 X2.843 Y-9.684 E5.12498
G1 X4.193 Y-9.181 E5.20120
G1 X5.456 Y-8.491 E5.27741
G1 X6.565 Y-7.661 E5.35072
G1 X6.846 Y-7.901 F9000.000
G1 X7.901 Y-6.846 F1800.000 E5.42967
G1 X8.795 Y-5.652 E5.50862
G1 X9.510 Y-4.343 E5.58757
G1 X10.031 Y-2.945 E5.66651
G1 X10.348 Y-1.488 E5.74546
G1 X10.454 Y0.000 E5.82441
G1 X10.348 Y1.488 E5.90336
G1 X10.031 Y2.945 E5.98231
G1 X9.510 Y4.343 E6.06126
G1 X8.795 Y5.652 E6.14021
G1 X7.901 Y6.846 E6.21916
G1 X6.846 Y7.901 E6.29811
G1 X5.652 Y8.795 E6.37706
G1 X4.343 Y9.510 E6.45601
G1 X2.945 Y10.031 E6.53496
G1 X1.488 Y10.348 E6.61391
G1 X0.000 Y10.454 E6.69286
G1 X-1.488 Y10.348 E6.77181
G1 X-2.945 Y10.031 E6.85076
G1 X-4.343 Y9.510 E6.92970
G1 X-5.652 Y8.795 E7.00865
G1 X-6.846 Y7.901 E7.08760
G1 X-7.901 Y6.846 E7.16655
G1 X-8.795 Y5.652 E7.24550
G1 X-9.510 Y4.343 E7.32445
G1 X-10.031 Y2.945 E7.40340
G1 X-10.348 Y1.488 E7.48235
G1 X-10.454 Y0.000 E7.56130
G1 X-10.348 Y-1.488 E7.64025
G1 X-10.031 Y-2.945 E7.71920
G1 X-9.510 Y-4.343 E7.79815
G1 X-8.795 Y-5.652 E7.87710
G1 X-7.901 Y-6.846 E7.95605
G1 X-6.846 Y-7.901 E8.03500
G1 X-5.652 Y-8.795 E8.11395
G1 X-4.343 Y-9.510 E8.19290
G1 X-2.945 Y-10.031 E8.27184
G1 X-1.488 Y-10.348 E8.35079
G1 X0.000 Y-10.454 E8.42974
G1 X1.488 Y-10.348 E8.50869
G1 X2.945 Y-10.031 E8.58764
G1 X4.343 Y-9.510 E8.66659
G1 X5.652 Y-8.795 E8.74554
G1 X6.802 Y-7.934 E8.82157
G1 X7.083 Y-8.174 F9000.000
G1 X8.174 Y-7.083 F1800.000 E8.90325
G1 X9.099 Y-5.847 E8.98493
G1 X9.838 Y-4.493 E9.06661
G1 X10.378 Y-3.047 E9.14829
G1 X10.706 Y-1.539 E9.22997
G1 X10.816 Y0.000 E9.31165
G1 X10.706 Y1.539 E9.39333
G1 X10.378 Y3.047 E9.47501
G1 X9.838 Y4.493 E9.55669
G1 X9.099 Y5.847 E9.63837
G1 X8.174 Y7.083 E9.72005
G1 X7.083 Y8.174 E9.80173
G1 X5.847 Y9.099 E9.88341
G1 X4.493 Y9.838 E9.96509
G1 X3.047 Y10.378 E10.04677
G1 X1.539 Y10.706 E10.12845
G1 X0.000 Y10.816 E10.21013
G1 X-1.539 Y10.706 E10.29181
G1 X-3.047 Y10.378 E10.37349
G1 X-4.493 Y9.838 E10.45517
G1 X-5.847 Y9.099 E10.53685
G1 X-7.083 Y8.174 E10.61853
G1 X-8.174 Y7.083 E10.70021
G1 X-9.099 Y5.847 E10.78189
G1 X-9.838 Y4.493 E10.86357
G1 X-10.378 Y3.047 E10.94525
G1 X-10.706 Y1.539 E11.02693
G1 X-10.816 Y0.000 E11.10860
G1 X-10.706 Y-1.539 E11.19028
G1 X-10.378 Y-3.047 E11.27196
G1 X-9.838 Y-4.493 E11.35364
G1 X-9.099 Y-5.847 E11.43532
G1 X-8.174 Y-7.083 E11.51700
G1 X-7.083 Y-8.174 E11.59868
G1 X-5.847 Y-9.099 E11.68036
G1 X-4.493 Y-9.838 E11.76204
G1 X-3.047 Y-10.378 E11.84372
G1 X-1.539 Y-10.706 E11.92540
G1 X0.000 Y-10.816 E12.00708
G1 X1.539 Y-10.706 E12.08876
G1 X3.047 Y-10.378 E12.17044
G1 X4.493 Y-9.838 E12.25212
G1 X5.847 Y-9.099 E12.33380
G1 X7.039 Y-8.207 E12.41256
G1 X5.330 Y-8.161 F9000.000
G1 X8.161 Y-5.330 F1800.000 E12.63024
G1 X8.862 Y-4.110 E12.70674
G1 X4.110 Y-8.862 E13.07214
G1 X3.235 Y-9.218 E13.12347
G1 X9.218 Y-3.235 E13.58348
G1 X9.481 Y-2.453 E13.62831
G1 X7.862 Y-4.073 E13.75281
G1 X7.404 Y-4.012 E13.77793
G1 X1.790 Y-9.625 E14.20952
G1 X2.453 Y-9.481 F9000.000
G1 X7.923 Y-4.012 F1800.000 E14.63001
G1 X7.862 Y-3.554 E14.65513
G1 X9.625 Y-1.790 E14.79072
G1 X9.745 Y-1.151 E14.82606
G1 X7.862 Y-3.035 E14.97088
G1 X7.862 Y-2.516 E14.99908
G1 X9.785 Y-0.592 E15.14698
G1 X9.825 Y-0.033 E15.17744
G1 X7.862 Y-1.997 E15.32840
G1 X7.862 Y-1.478 E15.35661
G1 X9.809 Y0.469 E15.50632
G1 X9.774 Y0.953 E15.53271
G1 X7.862 Y-0.959 E15.67976
G1 X7.862 Y-0.440 E15.70797
G1 X9.740 Y1.438 E15.85236
G1 X9.653 Y1.870 E15.87632
G1 X7.862 Y0.078 E16.01405
G1 X7.862 Y0.597 E16.04226
G1 X9.560 Y2.296 E16.17286
G1 X9.468 Y2.722 E16.19657
G1 X7.862 Y1.116 E16.32005
G1 X7.862 Y1.635 E16.34826
G1 X9.341 Y3.114 E16.46197
G1 X9.200 Y3.492 E16.48390
G1 X7.862 Y2.154 E16.58677
G1 X7.862 Y2.673 E16.61498
G1 X9.059 Y3.870 E16.70702
G1 X8.907 Y4.237 E16.72860
G1 X7.862 Y3.192 E16.80893
G1 X7.862 Y3.711 E16.83714
G1 X8.723 Y4.572 E16.90338
G1 X8.540 Y4.908 E16.92417
G1 X7.644 Y4.012 E16.99306
G1 X7.125 Y4.012 E17.02127
G1 X8.357 Y5.243 E17.11597
G1 X8.149 Y5.554 E17.13631
G1 X6.606 Y4.012 E17.25490
G1 X6.087 Y4.012 E17.28311
G1 X7.927 Y5.851 E17.42452
G1 X7.704 Y6.148 E17.44467
G1 X5.568 Y4.012 E17.60890
G1 X5.049 Y4.012 E17.63711
G1 X7.482 Y6.444 E17.82415
G1 X7.227 Y6.708 E17.84409
G1 X4.531 Y4.012 E18.05139
G1 X4.012 Y4.012 E18.07960
G1 X6.967 Y6.967 E18.30684
G1 X6.708 Y7.227 E18.32679
G1 X3.493 Y4.012 E18.57397
G1 X2.974 Y4.012 F9000.000
G1 X6.444 Y7.482 F1800.000 E18.84080
G1 X6.148 Y7.704 E18.86095
G1 X1.290 Y2.846 E19.23445
G1 X0.909 Y2.985 E19.25645
G1 X5.851 Y7.927 E19.63637
G1 X5.554 Y8.149 E19.65652
G1 X0.477 Y3.071 E20.04691
G1 X0.044 Y3.157 E20.07089
G1 X5.243 Y8.357 E20.47065
G1 X4.908 Y8.540 E20.49144
G1 X-0.531 Y3.102 E20.90955
G1 X-1.178 Y2.973 E20.94545
G1 X4.572 Y8.723 E21.38756
G1 X4.237 Y8.907 E21.40835
G1 X-8.907 Y-4.237 E22.41882
G1 X-9.059 Y-3.870 E22.44040
G1 X3.870 Y9.059 E23.43440
G1 X3.492 Y9.200 E23.45632
G1 X-9.200 Y-3.492 E24.43210
G1 X-9.341 Y-3.114 E24.45403
G1 X3.114 Y9.341 E25.41159
G1 X2.722 Y9.468 E25.43398
G1 X-9.468 Y-2.722 E26.37117
G1 X-9.560 Y-2.296 E26.39488
G1 X2.296 Y9.560 E27.30643
G1 X1.870 Y9.653 E27.33014
G1 X-9.653 Y-1.870 E28.21606
G1 X-9.740 Y-1.438 E28.24003
G1 X1.438 Y9.740 E29.09936
G1 X0.953 Y9.774 E29.12575
G1 X-9.774 Y-0.953 E29.95052
G1 X-9.809 Y-0.469 E29.97691
G1 X0.469 Y9.809 E30.76712
G1 X-0.033 Y9.825 E30.79445
G1 X-9.825 Y0.033 E31.54727
G1 X-9.785 Y0.592 E31.57773
G1 X-0.592 Y9.785 E32.28451
G1 X-1.151 Y9.745 E32.31497
G1 X-9.745 Y1.151 E32.97570
G1 X-9.625 Y1.790 E33.01104
G1 X-1.790 Y9.625 E33.61343
G1 X-2.453 Y9.481 E33.65032
G1 X-9.481 Y2.453 E34.19064
G1 X-9.218 Y3.235 E34.23547
G1 X-3.235 Y9.218 E34.69548
G1 X-4.110 Y8.862 E34.74681
G1 X-8.862 Y4.110 E35.11221
G1 X-8.161 Y5.330 E35.18871
G1 X-5.330 Y8.161 E35.40639
G1 F1800.000 E33.40639
G92 E0
G1 X-2.973 Y1.178 F9000.000
G1 F1800.000 E2.00000
G1 X-8.723 Y-4.572 F1800.000 E2.44211
G1 X-8.540 Y-4.908 F9000.000
G1 X-3.102 Y0.531 F1800.000 E2.86022
G1 X-3.157 Y-0.044 F9000.000
G1 X-8.357 Y-5.243 F1800.000 E3.25998
G1 X-8.149 Y-5.554 F9000.000
G1 X-3.071 Y-0.477 F1800.000 E3.65036
G1 X-2.985 Y-0.909 F9000.000
G1 X-7.927 Y-5.851 F1800.000 E4.03028
G1 X-7.704 Y-6.148 F9000.000
G1 X-2.846 Y-1.290 F1800.000 E4.40378
G1 X-2.638 Y-1.601 F9000.000
G1 X-7.482 Y-6.444 F1800.000 E4.77619
G1 X-7.227 Y-6.708 F9000.000
G1 X-2.431 Y-1.912 F1800.000 E5.14493
G1 X-2.223 Y-2.223 F9000.000
G1 X-6.967 Y-6.967 F1800.000 E5.50971
G1 X-6.708 Y-7.227 F9000.000
G1 X-1.912 Y-2.431 F1800.000 E5.87846
G1 X-1.601 Y-2.638 F9000.000
G1 X-6.444 Y-7.482 F1800.000 E6.25086
G1 X-6.148 Y-7.704 F9000.000
G1 X-1.290 Y-2.846 F1800.000 E6.62437
G1 X-0.909 Y-2.985 F9000.000
G1 X-5.851 Y-7.927 F1800.000 E7.00429
G1 X-5.554 Y-8.149 F9000.000
G1 X-0.477 Y-3.071 F1800.000 E7.39467
G1 X-0.044 Y-3.157 F9000.000
G1 X-5.243 Y-8.357 F1800.000 E7.79443
G1 X-4.908 Y-8.540 F9000.000
G1 X0.531 Y-3.102 F1800.000 E8.21254
G1 X1.178 Y-2.973 F9000.000
G1 X-4.572 Y-8.723 F1800.000 E8.65465
G1 X-4.237 Y-8.907 F9000.000
G1 X2.838 Y-1.832 F1800.000 E9.19858
G1 X2.838 Y-2.350 F9000.000
G1 X-3.870 Y-9.059 F1800.000 E9.71433
G1 X-3.492 Y-9.200 F9000.000
G1 X2.838 Y-2.869 F1800.000 E10.20103
G1 X2.838 Y-3.388 F9000.000
G1 X-3.114 Y-9.341 F1800.000 E10.65867
G1 X-2.722 Y-9.468 F9000.000
G1 X2.838 Y-3.907 F1800.000 E11.08618
G1 X3.253 Y-4.012 F9000.000
G1 X-2.296 Y-9.560 F1800.000 E11.51278
G1 X-1.870 Y-9.653 F9000.000
G1 X3.772 Y-4.012 F1800.000 E11.94650
G1 X4.290 Y-4.012 F9000.000
G1 X-1.438 Y-9.740 F1800.000 E12.38689
G1 X-0.953 Y-9.774 F9000.000
G1 X4.809 Y-4.012 F1800.000 E12.82993
G1 X5.328 Y-4.012 F9000.000
G1 X-0.469 Y-9.809 F1800.000 E13.27564
G1 X0.033 Y-9.825 F9000.000
G1 X5.847 Y-4.012 F1800.000 E13.72260
G1 X6.366 Y-4.012 E13.75081
G1 X0.592 Y-9.785 E14.19469
G1 X1.151 Y-9.745 E14.22515
G1 X6.885 Y-4.012 E14.66597
G1 F1800.000 E12.66597
G92 E0
G1 X2.838 Y2.319 F9000.000
G1 F1800.000 E2.00000
G1 X2.431 Y1.912 F1800.000 E2.03135
G1 X2.223 Y2.223 E2.05169
G1 X2.838 Y2.838 E2.09902
G1 X2.838 Y3.357 E2.12723
G1 X1.912 Y2.431 E2.19847
G1 X1.601 Y2.638 E2.21880
G1 X2.838 Y3.876 E2.31396
G1 F1800.000 E0.31396
G92 E0
G1 Z0.700 F9000.000
G1 X3.816 Y3.034
G1 F1800.000 E2.00000
G1 X3.816 Y-3.034 F1800.000 E2.32115
G1 X6.884 Y-3.034 E2.48351
G1 X6.884 Y3.034 E2.80466
G1 X3.871 Y3.034 E2.96411
G1 X3.456 Y3.394 F9000.000
G1 X3.456 Y-3.394 F1800.000 E3.32343
G1 X7.244 Y-3.394 E3.52397
G1 X7.244 Y3.394 E3.88330
G1 X3.511 Y3.394 E4.08091
G1 X3.095 Y3.755 F9000.000
G1 X3.095 Y-3.755 F1800.000 E4.47842
G1 X7.605 Y-3.755 E4.71713
G1 X7.605 Y3.755 E5.11463
G1 X3.150 Y3.755 E5.35043
G1 F1800.000 E3.35043
G92 E0
G1 X1.547 Y1.547 F9000.000
G1 F1800.000 E2.00000
G1 X0.837 Y2.021 F1800.000 E2.04517
G1 X0.000 Y2.187 E2.09035
G1 X-0.837 Y2.021 E2.13552
G1 X-1.547 Y1.547 E2.18069
G1 X-2.021 Y0.837 E2.22587
G1 X-2.187 Y0.000 E2.27104
G1 X-2.021 Y-0.837 E2.31621
G1 X-1.547 Y-1.547 E2.36139
G1 X-0.837 Y-2.021 E2.40656
G1 X0.000 Y-2.187 E2.45173
G1 X0.837 Y-2.021 E2.49691
G1 X1.547 Y-1.547 E2.54208
G1 X2.021 Y-0.837 E2.58725
G1 X2.187 Y0.000 E2.63243
G1 X2.021 Y0.837 E2.67760
G1 X1.577 Y1.501 E2.71986
G1 X1.807 Y1.807 F9000.000
G1 X0.978 Y2.361 F1800.000 E2.77262
G1 X0.000 Y2.555 E2.82539
G1 X-0.978 Y2.361 E2.87816
G1 X-1.807 Y1.807 E2.93092
G1 X-2.361 Y0.978 E2.98369
